X:529
T: WAS WIRD WOHL MEIN SCHAETZLEIN DENKEN
N: E0514A
O: Europa, Mitteleuropa, Deutschland, Rheinpfalz
R: Liebes - Lied
M: 4/4
L: 1/16
K: G
 | D4G4E4A4 | F4D4G4B4 |
D4G4D4A4 | F4D4G4z4 |
D4G4E4A4 | F4D4G4B4 |
D4G4D4A4 | F4D4G4z4 |
D4c3BA4z4 | D4B3AG4z4 |
E4E4D4G2B2 | d4c4B4z4

@@@ Tune index: 4179
